Hatter-kde/actions/16/labplot-editbreaklayout.svg

<svg xmlns="http://www.w3.org/2000/svg" viewBox="0 0 16 16">
  <defs id="defs3051">
    <style type="text/css" id="current-color-scheme">
      .ColorScheme-Text {
        color:#363636;
      }
      </style>
  </defs>
    <path
       style="fill:currentColor;fill-opacity:1;stroke:none" 
       d="M 2 2 L 2 14 L 8 14 L 8 13.185547 L 8 13 L 8 8 L 13 8 L 14 8 L 14 2 L 2 2 z M 13 8 L 12 9 L 11 10 L 9 12 L 9 13 L 9 14 L 11 14 L 11.59375 13.40625 L 12 13 L 13 12 L 14 11 L 15 10 L 13 8 z M 3 3 L 7 3 L 7 7 L 3 7 L 3 3 z M 8 3 L 13 3 L 13 7 L 8 7 L 8 3 z M 3 8 L 7 8 L 7 13 L 3 13 L 3 8 z M 12.689453 9.6894531 L 13.28125 10.28125 L 13 10.5625 L 11.59375 11.96875 L 11.59375 11.984375 L 10.3125 13.28125 L 9.71875 12.6875 L 12.689453 9.6894531 z "
        class="ColorScheme-Text" />
</svg>

<?xml version="1.0" encoding="UTF-8"?>
<svg viewBox="0 0 16 16" xmlns="http://www.w3.org/2000/svg">
 <defs id="defs3051">
  <style id="current-color-scheme" type="text/css">.ColorScheme-Text {
        color:#363636;
      }</style>
 </defs>
 <path class="ColorScheme-Text" d="m2 2v12h6v-0.81445-0.18555-5h5 1v-6h-12zm11 6-4 4v1 1h2l4-4-2-2zm-10-5h4v4h-4v-4zm5 0h5v4h-5v-4zm-5 5h4v5h-4v-5zm9.6895 1.6895 0.5918 0.5918-1.6875 1.6875v0.015625l-1.2812 1.2969-0.59375-0.59375 2.9707-2.998z" fill="currentColor"/>
</svg>
